!!!OTL: ES KLINGT EIN HELLER KLANG
!!!ARE: Europa, Mitteleuropa, Deutschland, Rheinland
!!!SCT: B0024
!!!YEM: Copyright 1995, estate of Helmut Schaffrath.
**kern
*ICvox
*Ivox
*M4/4
*k[f#c#]
*D:
{4D
=1
4.D
8F#
4A
4A
=2
2.A}
{4E
=3
4.F#
8A
4d
4d
=4
2.c#}
{4A
=5
4.B
8B
4e
4e
=6
4.A}
{8A
4d
4A
=7
4D
4E
4F#
4G#
=8
2.A}
{4E
=9
2E
2E
=10
4.A
8c#
4.c#}
{8e
=11
4.e
8d
4c#
4B
=12
4A
4E
4C#}
{4E
=13
2E
2E
=14
4.A
8c#
4.c#}
{8e
=15
4.e
8d
4c#
4B
=16
4A
4E
4C#}
{4A
=17
4.d
8c#
4B
4B
=18
4.A
8G
4F#}
{4E
=19
4F#
4A
4B
4e
=20
2d
2c#
=21
2d
4r}
==
!!!AGN: politisch, national, Vaterlands - Lied
!!!ONB: ESAC (Essen Associative Code) Database: BOEHME
!!!AMT: simple quadruple
!!!AIN: vox
!!!EED: Helmut Schaffrath
!!!EEV: 1.0
*-
